X: 11693
Q: "Slowly and tenderly."
M: C
L: 1/8
K: A
d2(fe) {d}c2(BA) | (dc)(BA) {G}F2(A>B) |\
c2e2 E3F | (AB/c/ {c}B>)A A2zA |\
d2(f>e) {d}c2(B/A/) | (dc)(BA) {G}F2A>B |\
c2e2 E3F | (AB/c/ {c}B)>A A2zA |
c3e f2=g2 | f3e (dc)(BA) |\
c2e2 f3^g | a3c {c}B2zg |\
a2({g}fe) c2(BA) | (dc)(BA) {G}F2A>B |\
c2e2 E3F | (AB/c/ {c}B)>A A2 |]


